X:1
T: Democratic Rage
C:
R:Reel
Q: 232
K:Bb
M:4/4
L:1/8
F|:B2 Bc BF DF|Bc dB ed cB|Bd fg fd Bd|ed cB AB cF|B2 Bc BF DF|
Bc dB ed cG|Bd fg fc Ac|1B2 BA B2 FA:|2B2 BA B2 de|
|:f2 fg f=e fb|g2 ga gf ga|ba gf ed cB|AB cA F2 e2|f2 fg f=e fb|
g2 ga gf ga|bf df ec Ac|1B2 BA Bc de:|2B2 BA B3||
